src/assets/icons/general/vfs.svg

<svg xmlns="http://www.w3.org/2000/svg" width="24" height="24" fill="currentColor" viewBox="0 0 640 640"><path d="M374.5 469.7c38.4-29 90.5-29 129 0 16.9 12.7 32.9 21.5 47.8 24.6 13.7 2.8 27.4.9 42.3-10.3 10.6-8 25.6-5.9 33.6 4.7s5.8 25.7-4.8 33.6c-26.4 19.9-54.2 24.4-80.7 19.1-25.3-5.1-48.1-18.9-67.2-33.3-21.3-16.1-49.9-16.1-71.2 0-24.2 18.3-52.3 35.9-83.4 35.9s-59.1-17.7-83.3-35.9c-21.3-16.1-49.9-16.1-71.2 0-23.8 17.9-54.1 35.5-88.1 35.3-20.4-.1-40.7-6.7-59.8-21.1-10.6-8-12.7-23-4.7-33.6s23-12.7 33.6-4.7c11.3 8.5 21.6 11.4 31.2 11.5 17.6.1 37.3-9.4 58.9-25.7 38.4-29 90.6-29 129 0 24 18.1 40.7 26.3 54.5 26.3s30.5-8.2 54.5-26.3zM511.8 96c48.3 0 89 36 95 83.9l1 8.2c2.2 17.5-10.2 33.5-27.8 35.7s-33.5-10.2-35.7-27.8l-1-8.2c-2-15.9-15.5-27.8-31.5-27.8-17.5 0-31.8 14.2-31.8 31.8v211.8c-23.1-5.1-44.9-4.4-64-.4V352H224v48.7c-5.3-.5-10.7-.8-16-.7-16.2.1-32.4 2.7-48 8V191.8c0-52.9 42.9-95.8 95.7-95.8 48.3 0 89 36 95 83.9l1 8.2c2.2 17.5-10.2 33.5-27.8 35.7s-33.5-10.2-35.7-27.8l-1-8.2c-2-15.9-15.5-27.8-31.5-27.8-17.5 0-31.7 14.2-31.7 31.8V288h192v-96.2c0-52.9 42.9-95.8 95.8-95.8"/></svg>

<svg xmlns="http://www.w3.org/2000/svg" height="24px" viewBox="0 0 640 640" width="24px" fill="currentColor">
    
        <path
            d="M374.5 469.7C412.9 440.7 465 440.7 503.5 469.7C520.4 482.4 536.4 491.2 551.3 494.3C565 497.1 578.7 495.2 593.6 484C604.2 476 619.2 478.1 627.2 488.7C635.2 499.3 633 514.4 622.4 522.3C596 542.2 568.2 546.7 541.7 541.4C516.4 536.3 493.6 522.5 474.5 508.1C453.2 492 424.6 492 403.3 508.1C379.1 526.4 351 544 319.9 544C288.8 544 260.8 526.3 236.6 508.1C215.3 492 186.7 492 165.4 508.1C141.6 526 111.3 543.6 77.3 543.4C56.9 543.3 36.6 536.7 17.5 522.3C6.9 514.3 4.8 499.3 12.8 488.7C20.8 478.1 35.8 476 46.4 484C57.7 492.5 68 495.4 77.6 495.5C95.2 495.6 114.9 486.1 136.5 469.8C174.9 440.8 227.1 440.8 265.5 469.8C289.5 487.9 306.2 496.1 320 496.1C333.8 496.1 350.5 487.9 374.5 469.8zM511.8 96C560.1 96 600.8 132 606.8 179.9L607.8 188.1C610 205.6 597.6 221.6 580 223.8C562.4 226 546.5 213.6 544.3 196L543.3 187.8C541.3 171.9 527.8 160 511.8 160C494.3 160 480 174.2 480 191.8L480 403.6C456.9 398.5 435.1 399.2 416 403.2L416 352L224 352L224 400.7C218.7 400.2 213.3 399.9 208 400C191.8 400.1 175.6 402.7 160 408L160 191.8C160 138.9 202.9 96 255.7 96C304 96 344.7 132 350.7 179.9L351.7 188.1C353.9 205.6 341.5 221.6 323.9 223.8C306.3 226 290.4 213.6 288.2 196L287.2 187.8C285.2 171.9 271.7 160 255.7 160C238.2 160 224 174.2 224 191.8L224 288L416 288L416 191.8C416 138.9 458.9 96 511.8 96z" />
    
</svg>
